X:1
T:Now must I die recureless - Morley
T:#
%%score { 1 | 2 } 3
L:1/8
Q:1/4=120
M:4/4
K:F
V:1 treble nm="Soprano I" snm="S"
V:2 treble 
V:3 treble-8 nm="Tenor" snm="T"
V:1
 z8 | z8 | z8 | d8 |"^Now must I die recureless**" G4 G4 | ^F4 F4 | G6 =F2 | %7
w: |||Now|must I|die, now|must I|
"^Thomas Morley\n(1557-1603)" E2 F2 G4- |[M:4/4] G4 ^F4 | G4 D4 | (D4 C4) | D8- | D8 | z4 D4 | %14
w: die, a- las,|* a-|las, re-|cure\- *|less,||When|
 d2 c2 d2 e2 | f2 d2 c4 | d4 G2 d2- | d2 d2 d2 ^c2 | d2 A2 =B2 (AB) | c2 =B2 A4 | =B2 G2 _B2 AG | %21
w: faith, when faith is|thus re- gard-|ed, when faith,|* true faith is|thus, is thus, is *|thus re- gard-|ed, And poor Love, a-|
 ^F2 G2 F4 |[M:4/4] G2 c2 d2 cB | A2 B2 c4 | c2 x4 z2 |[M:3/4] d2 _e4 | d2 d4 | c4 B2 | %28
w: las, un- kind-|ly, and poor Love, a-|las, un- kind-|ly,|un- kind-|ly is|thus re-|
[M:3/4] A4 =B8 |[M:3/4] z8 | G8 | _e8- | e4 d4 |[M:4/4] c4 A4 | B4 B4- | B4 A4 | G2 A2 (B4- | %37
w: ward- ed.||O|grief,|* O|grief, a-|las, O|* who|may a- bide|
 B4 A4) | B2 F2 B3 B | A3 B G3 A | ^F2 G2 F4 | G4 z2 D2 | d2 d2 c3 d | B3 c A2 d2 | c2 B2 (B2 A2) | %45
w: |it? Hold, hold out,|break not, break not|heart, O hide|it; O|hold, O break not,|break not heart, O|hide, O hide *|
 B2 F2 B3 G | A3 B G3 A | ^F2 D2 F2 F2 | E8 | ^F4 z2 A2 | d3 A B3 c | A2 G2 A4 | =B4 _B4 | A4 A4 | %54
w: it; O break, O|break, O break not|heart, O no, O|hide|it; O|hold, O break not|heart, but hide|it. O|Na- ture|
 G4 D4 | z4 G4 | ^F4 F4 | (G6 =F2 | E2 F2) G4- | G4 ^F4 | G2 B4 G2- | G2 D2 E2 E2 | ^F4 G4 | %63
w: cru- el,|O|Na- ture|cru\- *|* * el,|* wit-|ty, O Na\-|* ture cru- el,|wit- ty,|
 D2 E2 =F2 G2 | A4 B4 | A8 | G4 z2 G2 | d4 z2 d2 | f3 e d2 c2 | B2 A2 G2 ^F2 | G2 A2 B4 | %71
w: Beau- ty so to|make sans|pi-|ty. Fare-|well, fare-|well, fare- well, a-|dieu, with this your|love un- feign-|
 A2 =F2 B3 A | G2 G2 c3 B | A2 A2 B3 A | G4 A2 (G2- | G2 ^F2) G4 |[M:4/4] G4 B8 | A8 x4 | %78
w: ed; I die a-|las, I die a-|las, through your dis-|dain con- strain\-|* * ed.|O grief,|beau-|
[M:4/4] G2 F2 x4 |[M:4/4] E2 D2 E4 | D8 | d8 | d8- | d8 | =B2 G2 _B4 | z2 F2 B4 | z2 A2 B3 A | %87
w: ty and|no, no pi-|ty|no|pi\-||ty. Fare- well,|fare- well,|fare- well, a-|
 G2 ^F2 G2 A2 | B2 A2 G4 | ^F2 A2 d3 c | B2 B2 _e3 d | c2 c2 d3 c | B2 B2[Q:1/4=118] c4- | %93
w: dieu, with this your|love un- feign-|ed; I die a-|las, I die a-|las, through your dis-|dain con- strain'd,|
[Q:1/4=114] c4[Q:1/4=110] B4 |[Q:1/4=105] A8 |[Q:1/4=102] =B8 |] %96
w: * con-|strain-|ed.|
V:2
 z8 | D8 | A4 A4 | B4 G4 | B8 | A8 | z4 d4 | G4 G4 |[M:4/4] c8 | B4 (A4 | G8) | ^F6 A2 | %12
w: |Now|must I|die re-|cure-|less,|now|must I|die|re- cure\-||less, When|
 B2 A2 B2 c2 | d4 d2 c2 | B2 A2 G (ABG) | A2 (B4 A2) | B2 F2 B4- | B2 A2 B2 G2 | ^F4 G2 D2 | %19
w: faith is thus re-|gard- ed, when|faith is thus re\- * *|* gard\- *|ed, when faith|* is thus re-|gard- ed, is|
 EF (G4 ^F2) | G2 G2 d2 cB | A2 G2 A4 |[M:4/4] G2 A2 B2 x2 | AG ^F2 G2 x2 | A4 GA z2 | %25
w: thus re- gard\- *|ed, And poor Love a-|las, un- kind-|ly, and poor|Love, a- las, un-|kind- ly, un-|
[M:3/4] (B4 A2) | B2 B4 | A4 G2 |[M:3/4] ^F4 G4 G4 |[M:3/4] B8- | B4 A4 | G4 F4 | _E2 F2 G4- | %33
w: kind\- *|ly is|thus re-|ward- ed. O|grief,|* O|grief who|may a- bide|
[M:4/4] (G4 ^F4) | G8 | d6 d2 | c4 B4 | _e8 | d4 z2 d2 | c3 d B3 c | A2 G2 A4 | =B2 G2 _B2 A2 | %42
w: |it?|O who|may a-|bide|it? Hold,|hold out, break not|heart, but hide|it; O break not,|
 B3 c A3 B | G3 A ^F2 B2 | A2 B2 c4 | d6 d2 | c3 d B3 c | A4 A2 (d2- | d2 ^c=B c4) | d2 A2 d2 A2 | %50
w: hold out, break not,|hold out heart, hold,|hold, O hold|it; O|hold, O hold, O|hold and hide||it; O break not|
 B2 A4 (G2- | G2 ^FE F4) | G8 | z4 d4 | =B4 B4 | ^c8 | d8 | z4 d4 | G4 G4 | c8 | B2 G2 d4- | %61
w: heart, but hide||it.|O|Na- ture|cru-|el,|O|cru- el,|wit-|ty, O cru\-|
 d2 d2 ^c4 | d4 d4 | d8 | d8- | d8 | =B2 G2 _B4 | z2 F2 B4 | z2 A2 B3 A | G2 ^F2 G2 A2 | B2 A2 G4 | %71
w: * el, wit-|ty, with-|out|pi\-||ty. Fare- well,|fare- well,|fare- well, a-|dieu, with this your|love un- feign-|
 ^F2 A2 d3 c | B2 B2 _e3 d | c2 c2 d3 c | B2 B2 c2 B2 | A4 =B4 |[M:4/4] z4 d8 | c8 B4 |[M:4/4] x8 | %79
w: ed; I die a-|las, I die a-|las, through your dis-|dain con- strain'd, con-|strain- ed.|O|Na- ture||
[M:4/4] A2 G2 A3 G | ^F4 G4 | D2 E2 =F2 G2 | A4 B4 | A8 | G4 z2 G2 | d4 z2 d2 | f3 e d2 c2 | %87
w: cru- el, cru- el,|wit- ty,|Beau- ty stoor** and|yet no|pi-|ty. Fare-|well, fare-|well, fare- well, a-|
 B2 A2 G2 ^F2 | G2 A2 B4 | A2 =F2 B3 A | G2 G2 c3 B | A2 A2 B3 A | G2 G2 A4- | A2 G2 (G4- | %94
w: dieu, with this your|love un- feign-|ed; I die a-|las, I die a-|las, through your dis-|dain con- strain'd,|* con- strain\-|
 G2 ^FE F4) | G8 |] %96
w: |ed.|
V:3
 d8 | G4 G4 | ^F8 | G8 | G3 A B2 c2 | d4 d4 | =B4 B4 | c6 B2 |[M:4/4][K:treble-8] A8 | G4 F4 | %10
w: Now|must I|die,|now,|now, a- las, I|die, now|must I|die re-|cure-|less, re-|
 _E8 | D6 D2 | G2 F2 G2 A2 | B4 B2 A2 | G2 A2 B2 G2 | F8 | B4 z2 G2 | g2 ^f2 g2 e2 | d4 G4 | %19
w: cure-|less, When|faith is thus re-|gard- ed, when|faith is thus re-|gard-|ed, when|faith is thus re-|gard- ed,|
 c4 d4 |"^**recureless = incurable" G8 | z4 z2 d2 |[M:3/4] _e2 dc B2 x2 | c2 d2 g2 x2 | f4 _e2 z2 | %25
w: re- gard-|ed,|And|poor Love, a- las,|poor Love un-|kind- ly,|
[M:3/4][K:treble-8] d2 c4 | B2 B4 | F4 G2 |[M:3/2] d4 G8 |[M:4/4] z4 G4 | _e8- | e4 d4 | c4 B4 | %33
w: un- kind-|ly is|thus re-|ward- ed.|O|grief|* who|may a-|
[M:4/4][K:treble-8] A8 | G4 g4- | g4 f4 | _e4 d4 | c8 | B4 z2 B2 | f3 d _e3 c | d2 _e2 d4 | %41
w: bide|it? O|* who|may a-|bide|it? Hold,|hold out, break not|heart, O hide|
 G2 G2 g2 ^f2 | g3 d f3 d | _e3 c d2 B2 | f2 d2 f4 | B4 z2 B2 | f3 d _e3 c | d4 d4 | A8 | d8 | %50
w: it; hold, hold out,|break not, break not,|break not heart, O|hold and hide|it; O|break not, break not|heart, O|hide,|O|
 D8- | D8 | G4 G4 | ^F4 F4 | G6 =F2 | E8 | D4 d4 | =B4 B4 | c6 _B2 | A8 | G4 z2 B2 | G2 B2 A4 | %62
w: hide||it, O|Na- ture|cru- el,|wit-|ty, O|Na- ture|cru- el|wit-|ty, O|cru- el, wit-|
 D4 G2 A2 | B2 c2 d2 e2 | ^f2 d2 (g4- | g2 ^fe f4) | g4 z2 G2 | B4 z2 G2 | d3 c B2 F2 | %69
w: ty, Beau- ty|so to make with-|out all pi\-||ty. Fare-|well, fare-|well a- dieu, with|
 G2 D2 G2 d2 | G2 ^F2 G4 | d4 z2 B2 | _e3 d c2 c2 | f4 B4 | _e3 d c2 c2 | d4 G4 |[M:3/2] z4 G4 B4 | %77
w: this your love, your|love un- feign-|ed; I|die a- las, I|die through|your dis- dain con-|strain- ed.|O Na-|
 F8 G4 |[M:4/4][K:treble-8] A2 B2 A4 | D4 G2 A2 | B2 c2 d2 e2 | ^f2 d2 (g4- | g2 ^fe f4) | %83
w: ture, O|cru- el, wit-|ty, Beau- ty|so to make with-|out all pi\-||
 g4 z2 G2 | B4 z2 G2 | d3 c B2 F2 | G2 D2 G2 d2 | G2 ^F2 G4 | d4 z2 B2 | %89
w: ty. Fare-|well, fare-|well, a- dieu, with|this your love, your|love un- feign-|ed; I|
"^**stoor = great" _e3 d c2 c2 | f4 B4 | _e3 d c2 c2 | d8- | d8 | G8 | x8 |] %96
w: die a- las, I|die through|your dis- dain con-|strain\-||ed.||

